X: 1450
T: Anchor Rant, The
R: reel
M: 4/4
K: Dmajor
d S|:Bd Bd/e/ f>g f/e/d/c/|d>efg a/g/f/e/ dc|Bd Bd/e/ f>a g/f/e/d/|
[1 c>ABG EE EG/A/:|2 ec dB/G/ AA AB/d/||[K:G] g>a b/a/g/f/ gdec|
B>cBG F/G/A/B/ c/d/e/f/|g>a b/a/g/f/ gd eB|c>ABG EE E/G/B/d/|g>a b/a/g/f/ g>agd|
B>dBG F/G/A/B/ c/d/e/f/|g>baf g/a/g/f/ gd|c>ABG EE EG/A/ S||

